brandFactory_export/1.Light/Grua_1Light.svg

<?xml version="1.0" encoding="UTF-8"?>
<svg width="24px" height="24px" viewBox="0 0 24 24" version="1.1" xmlns="http://www.w3.org/2000/svg" xmlns:xlink="http://www.w3.org/1999/xlink">
    <title>1.Light/Grua_1Light</title>
    <g id="Symbols" stroke="none" stroke-width="1" fill="none" fill-rule="evenodd">
        <g id="1.Light/Grua_1Light" fill="#5CB615" fill-rule="nonzero">
            <path d="M22.6386555,17.1478992 C22.6386555,17.5243697 22.4605042,17.9210084 22.1478992,18.2268908 C21.8352941,18.5361345 21.4386555,18.7142857 21.0588235,18.7142857 L20.8436975,18.7142857 C20.8605042,18.5462185 20.8840336,18.3815126 20.8840336,18.2033613 C20.8840336,15.994958 19.5563025,14.6806723 17.3277311,14.6806723 C15.102521,14.6806723 13.7714286,15.9983193 13.7714286,18.2033613 C13.7714286,18.3848739 13.794958,18.5462185 13.8117647,18.7142857 L9.2,18.7142857 C9.21680672,18.5462185 9.24033613,18.3815126 9.24033613,18.2033613 C9.24033613,15.994958 7.91260504,14.6806723 5.68403361,14.6806723 C3.45882353,14.6806723 2.13109244,15.9983193 2.13109244,18.2033613 C2.13109244,18.3512605 2.1512605,18.4890756 2.16470588,18.6302521 C1.90588235,18.5563025 1.66722689,18.4184874 1.47563025,18.2302521 C1.16638655,17.9210084 0.98487395,17.5277311 0.98487395,17.1512605 L0.98487395,12.2705882 L10.9915966,12.2705882 C11.2638655,12.2705882 11.4823529,12.0521008 11.4823529,11.7831933 L11.4823529,5.39663866 L16.2621849,5.39663866 C16.8436975,5.39663866 17.4756303,5.71260504 17.805042,6.16302521 C18.3462185,6.90588235 21.4991597,11.0571429 21.912605,11.5915966 C22.1848739,11.9411765 22.6420168,12.5294118 22.6420168,13.0773109 C22.6386555,13.0739496 22.6386555,17.1478992 22.6386555,17.1478992 Z M17.3277311,20.7512605 C15.6470588,20.7512605 14.7563025,19.8705882 14.7563025,18.2033613 C14.7563025,16.5361345 15.6470588,15.6554622 17.3277311,15.6554622 C19.0084034,15.6554622 19.8991597,16.5361345 19.8991597,18.2033613 C19.8991597,19.8705882 19.0084034,20.7512605 17.3277311,20.7512605 Z M5.68403361,20.7512605 C4.00336134,20.7512605 3.11596639,19.8705882 3.11596639,18.2033613 C3.11596639,16.5361345 4.00336134,15.6554622 5.68403361,15.6554622 C7.36806723,15.6554622 8.25546218,16.5361345 8.25546218,18.2033613 C8.25546218,19.8705882 7.36806723,20.7512605 5.68403361,20.7512605 Z M4.27226891,4.01176471 L9.18655462,11.0941176 L7.09915966,11.0907563 L3.55966387,4.00504202 L4.27226891,4.01176471 Z M22.692437,10.9932773 C22.2823529,10.4621849 19.1394958,6.33109244 18.605042,5.59159664 C18.0907563,4.8789916 17.1697479,4.42184874 16.2655462,4.42184874 L10.9915966,4.42184874 C10.7193277,4.42184874 10.5008403,4.64033613 10.5008403,4.9092437 L10.5008403,11.2621849 L4.93781513,3.2487395 C4.84705882,3.11764706 4.69579832,3.03697479 4.53445378,3.03697479 L2.7697479,3.02352941 L2.76638655,3.02352941 C2.69915966,3.02689076 2.63193277,3.04369748 2.57142857,3.07394958 C2.3697479,3.13445378 2.22857143,3.31932773 2.22857143,3.53109244 L2.21848739,8.62689076 C2.22521008,8.69411765 2.21176471,9.01344538 2.05042017,9.18823529 C2.01680672,9.22184874 1.91596639,9.32941176 1.62689076,9.33277311 L1.62016807,9.33277311 C1.30756303,9.33277311 1.20672269,9.22184874 1.17310924,9.18487395 C1.01512605,9.01008403 1.00840336,8.67731092 1.01848739,8.57983193 C1.0487395,8.31092437 0.860504202,8.06890756 0.591596639,8.03865546 L0.588235294,8.03865546 C0.322689076,8.00504202 0.0773109244,8.18991597 0.043697479,8.45882353 L0.043697479,8.46554622 C0.0336134454,8.54957983 -0.0403361345,9.30252101 0.440336134,9.83361345 C0.638655462,10.0521008 1.00168067,10.307563 1.62352941,10.307563 L1.63697479,10.307563 C2.22857143,10.3042017 2.58151261,10.0554622 2.77647059,9.85042017 C3.24705882,9.34285714 3.21008403,8.63361345 3.20336134,8.59327731 L3.21008403,5.49747899 L6.10420168,11.2957983 L0.490756303,11.2957983 C0.218487395,11.2957983 0,11.5142857 0,11.7831933 L0,17.1478992 C0,17.7831933 0.282352941,18.4285714 0.776470588,18.9193277 C1.2,19.3394958 1.74453782,19.5848739 2.36302521,19.6588235 C2.83697479,20.9764706 4.00336134,21.7294118 5.68067227,21.7294118 C7.34789916,21.7294118 8.51092437,20.989916 8.99159664,19.692437 L14.0168067,19.692437 C14.497479,20.9932773 15.6605042,21.7294118 17.3277311,21.7294118 C18.994958,21.7294118 20.1579832,20.989916 20.6386555,19.692437 L21.0588235,19.692437 C21.7008403,19.692437 22.3529412,19.4134454 22.8436975,18.9226891 C23.3378151,18.4319328 23.6235294,17.7865546 23.6235294,17.1512605 L23.6235294,13.0739496 C23.6235294,12.1966387 23.0386555,11.4436975 22.692437,10.9932773 Z" id="Grua_1Light"></path>
        </g>
    </g>
</svg>

<svg width="24" height="24" viewBox="0 0 24 24" xmlns="http://www.w3.org/2000/svg"><path d="M22.639 17.148c0 .376-.178.773-.491 1.079-.313.31-.71.487-1.09.487h-.214c.017-.168.04-.332.04-.51 0-2.209-1.328-3.523-3.556-3.523-2.225 0-3.557 1.317-3.557 3.522 0 .182.024.343.04.511H9.2c.017-.168.04-.332.04-.51 0-2.209-1.327-3.523-3.556-3.523-2.225 0-3.553 1.317-3.553 3.522 0 .148.02.286.034.427a1.62 1.62 0 01-.69-.4c-.309-.309-.49-.702-.49-1.079v-4.88h10.007c.272 0 .49-.219.49-.488V5.397h4.78c.582 0 1.214.316 1.543.766.541.743 3.694 4.894 4.108 5.429.272.35.729.937.729 1.485-.003-.003-.003 4.07-.003 4.07zm-5.311 3.603c-1.68 0-2.572-.88-2.572-2.548 0-1.667.891-2.548 2.572-2.548 1.68 0 2.571.881 2.571 2.548 0 1.668-.89 2.548-2.571 2.548zm-11.644 0c-1.68 0-2.568-.88-2.568-2.548 0-1.667.887-2.548 2.568-2.548 1.684 0 2.571.881 2.571 2.548 0 1.668-.887 2.548-2.571 2.548zM4.272 4.011l4.915 7.083-2.088-.003-3.54-7.086.713.007zm18.42 6.982c-.41-.53-3.553-4.662-4.087-5.401-.514-.713-1.435-1.17-2.34-1.17h-5.273a.488.488 0 00-.491.487v6.353L4.938 3.25a.493.493 0 00-.404-.212L2.77 3.024h-.004a.493.493 0 00-.195.05.479.479 0 00-.342.457l-.01 5.096c.006.067-.007.386-.169.561-.033.034-.134.141-.423.145H1.62c-.312 0-.413-.111-.447-.148-.158-.175-.165-.508-.155-.605a.486.486 0 00-.426-.541H.588a.485.485 0 00-.544.42v.007c-.01.084-.084.837.396 1.368.199.218.562.474 1.184.474h.013c.592-.004.945-.253 1.14-.458.47-.507.433-1.216.426-1.257l.007-3.096 2.894 5.799H.491a.488.488 0 00-.491.487v5.365c0 .635.282 1.28.776 1.771.424.42.969.666 1.587.74.474 1.317 1.64 2.07 3.318 2.07 1.667 0 2.83-.74 3.31-2.037h5.026c.48 1.301 1.644 2.037 3.31 2.037 1.668 0 2.831-.74 3.312-2.037h.42c.642 0 1.294-.279 1.785-.77.494-.49.78-1.135.78-1.77v-4.078c0-.877-.585-1.63-.932-2.08z" fill="#5CB615" fill-rule="nonzero"/></svg>
